src/lib/packages/icons/src/assets/filled/star-shooting-horizontal.svg

<svg width="24" height="24" viewBox="0 0 24 24" fill="none" xmlns="http://www.w3.org/2000/svg">
<path d="M15.326 6.421L16.697 9.18596C16.8 9.39396 16.999 9.538 17.23 9.572L20.394 10.03C20.974 10.114 21.206 10.826 20.785 11.234L18.4969 13.454C18.3299 13.616 18.253 13.85 18.293 14.079L18.816 17.117C18.922 17.733 18.274 18.203 17.719 17.913L14.974 16.477C14.768 16.369 14.522 16.369 14.317 16.477L11.574 17.912C11.018 18.203 10.369 17.732 10.476 17.115L10.999 14.08C11.039 13.851 10.962 13.617 10.795 13.455L8.50696 11.235C8.08696 10.827 8.31795 10.115 8.89795 10.031L12.062 9.57298C12.292 9.53998 12.491 9.39599 12.595 9.18699L13.9659 6.42198C14.2459 5.85998 15.048 5.86 15.326 6.421ZM7.75 17C7.75 16.586 7.414 16.25 7 16.25H3C2.586 16.25 2.25 16.586 2.25 17C2.25 17.414 2.586 17.75 3 17.75H7C7.414 17.75 7.75 17.414 7.75 17ZM5 12.75H3C2.586 12.75 2.25 12.414 2.25 12C2.25 11.586 2.586 11.25 3 11.25H5C5.414 11.25 5.75 11.586 5.75 12C5.75 12.414 5.414 12.75 5 12.75ZM7 7.74998H3C2.586 7.74998 2.25 7.41398 2.25 6.99998C2.25 6.58598 2.586 6.24998 3 6.24998H7C7.414 6.24998 7.75 6.58598 7.75 6.99998C7.75 7.41398 7.414 7.74998 7 7.74998Z" fill="currentColor"/>
</svg>

<svg xmlns="http://www.w3.org/2000/svg" width="24" height="24" fill="none"><path fill="currentColor" d="m15.326 6.421 1.371 2.765a.709.709 0 0 0 .533.386l3.164.458c.58.084.812.796.391 1.204l-2.288 2.22a.703.703 0 0 0-.204.625l.523 3.038a.756.756 0 0 1-1.097.796l-2.745-1.436a.707.707 0 0 0-.657 0l-2.743 1.435a.757.757 0 0 1-1.098-.797l.523-3.035a.703.703 0 0 0-.204-.625l-2.288-2.22a.705.705 0 0 1 .391-1.204l3.164-.458a.708.708 0 0 0 .533-.386l1.37-2.765a.76.76 0 0 1 1.361-.001ZM7.75 17a.75.75 0 0 0-.75-.75H3a.75.75 0 0 0 0 1.5h4a.75.75 0 0 0 .75-.75ZM5 12.75H3a.75.75 0 0 1 0-1.5h2a.75.75 0 0 1 0 1.5Zm2-5H3a.75.75 0 0 1 0-1.5h4a.75.75 0 0 1 0 1.5Z"/></svg>
